app/content/themes/irontheme/images/general/view-full.svg

<svg width="30" height="30" viewBox="0 0 30 30" fill="none" xmlns="http://www.w3.org/2000/svg">
<path d="M1.04481 9.06896C1.62196 9.06896 2.08962 8.60116 2.08962 8.02415V3.56936L8.8189 10.2972C9.02299 10.5012 9.29032 10.6032 9.55765 10.6032C9.82512 10.6032 10.0926 10.5012 10.2965 10.2971C10.7046 9.88907 10.7046 9.22749 10.2964 8.8196L3.56684 2.09157H8.02261C8.59963 2.09157 9.06742 1.62378 9.06742 1.04676C9.06742 0.46975 8.59977 0.00195312 8.02261 0.00195312H1.04481C0.467657 0.00195312 0 0.46975 0 1.04676V8.02429C0 8.60116 0.467657 9.06896 1.04481 9.06896Z" fill="white"/>
<path d="M28.9548 20.9322C28.3777 20.9322 27.91 21.4 27.91 21.977V26.4319L20.9736 19.4955C20.5654 19.0874 19.904 19.0874 19.496 19.4955C19.0879 19.9035 19.0879 20.5651 19.496 20.973L26.4323 27.9093H21.9776C21.4004 27.9093 20.9328 28.3771 20.9328 28.9541C20.9328 29.5311 21.4004 29.9989 21.9776 29.9989H28.955C29.5321 29.9989 29.9998 29.5311 29.9998 28.9541V21.977C29.9997 21.4 29.5319 20.9322 28.9548 20.9322Z" fill="white"/>
<path d="M9.02584 19.4955L2.09011 26.4318V21.977C2.09011 21.4 1.62245 20.9322 1.0453 20.9322C0.468145 20.9322 0.000488281 21.4 0.000488281 21.977V28.9544C0.000488281 29.5314 0.468145 29.9992 1.0453 29.9992H8.0224C8.59942 29.9992 9.06721 29.5314 9.06721 28.9544C9.06721 28.3774 8.59956 27.9096 8.0224 27.9096H3.56761L10.5035 20.973C10.9115 20.565 10.9115 19.9034 10.5033 19.4954C10.0956 19.0875 9.43401 19.0875 9.02584 19.4955Z" fill="white"/>
<path d="M28.9552 0H21.9778C21.4007 0 20.933 0.467797 20.933 1.04481C20.933 1.62182 21.4007 2.08962 21.9778 2.08962H26.4327L19.7044 8.81834C19.2964 9.22638 19.2964 9.88795 19.7046 10.296C19.9085 10.4999 20.176 10.6019 20.4433 10.6019C20.7107 10.6019 20.9781 10.4998 21.1822 10.2958L27.9105 3.56712V8.0222C27.9105 8.59921 28.3782 9.06701 28.9553 9.06701C29.5325 9.06701 30.0002 8.59921 30.0002 8.0222V1.04481C30 0.467657 29.5322 0 28.9552 0Z" fill="white"/>
</svg>

<svg width="30" height="30" viewBox="0 0 30 30" fill="none" xmlns="http://www.w3.org/2000/svg"><path d="M1.045 9.069c.577 0 1.045-.468 1.045-1.045V3.57l6.729 6.728a1.042 1.042 0 001.477 0 1.044 1.044 0 000-1.477l-6.73-6.728h4.457a1.045 1.045 0 000-2.09H1.045A1.044 1.044 0 000 1.047v6.977C0 8.601.468 9.07 1.045 9.07zm27.91 11.863c-.577 0-1.045.468-1.045 1.045v4.455l-6.936-6.936a1.045 1.045 0 10-1.478 1.477l6.936 6.936h-4.454a1.045 1.045 0 100 2.09h6.977c.577 0 1.045-.468 1.045-1.045v-6.977c0-.577-.468-1.045-1.045-1.045zM9.026 19.495L2.09 26.433v-4.455a1.045 1.045 0 10-2.09 0v6.977C0 29.531.468 30 1.045 30h6.977a1.045 1.045 0 000-2.09H3.568l6.936-6.936a1.045 1.045 0 10-1.478-1.477zM28.955 0h-6.977a1.045 1.045 0 100 2.09h4.455l-6.729 6.728a1.045 1.045 0 101.478 1.478l6.729-6.729v4.455a1.045 1.045 0 102.09 0V1.045A1.048 1.048 0 0028.954 0z" fill="#fff"/></svg>
